icons/mail-24.svg

<svg xmlns="http://www.w3.org/2000/svg" width="24" height="24" viewBox="0 0 24 24"><path d="M1.75 3h20.5c.966 0 1.75.784 1.75 1.75v14a1.75 1.75 0 01-1.75 1.75H1.75A1.75 1.75 0 010 18.75v-14C0 3.784.784 3 1.75 3zM1.5 7.412V18.75c0 .138.112.25.25.25h20.5a.25.25 0 00.25-.25V7.412l-9.52 6.433c-.592.4-1.368.4-1.96 0zm0-2.662v.852l10.36 7a.25.25 0 00.28 0l10.36-7V4.75a.25.25 0 00-.25-.25H1.75a.25.25 0 00-.25.25z"/></svg>

<svg xmlns="http://www.w3.org/2000/svg" width="24" height="24" viewBox="0 0 24 24">
  <defs/>
  <path d="M1.75,3 L22.25,3 C23.216,3 24,3.784 24,4.75 L24,18.75 C24,19.716 23.216,20.5 22.25,20.5 L1.75,20.5 C0.784,20.5 0,19.716 0,18.75 L0,4.75 C0,3.784 0.784,3 1.75,3 Z M1.5,7.412 L1.5,18.75 C1.5,18.888 1.612,19 1.75,19 L22.25,19 C22.388,19 22.5,18.888 22.5,18.75 L22.5,7.412 L12.98,13.845 C12.388,14.245 11.612,14.245 11.02,13.845 Z M1.5,4.75 L1.5,5.602 L11.86,12.602 C11.945,12.659 12.055,12.659 12.14,12.602 L22.5,5.602 L22.5,4.75 C22.5,4.612 22.388,4.5 22.25,4.5 L1.75,4.5 C1.612,4.5 1.5,4.612 1.5,4.75 Z"/>
</svg>
